hand-wave.svg

<svg fill="currentColor" viewBox="0 0 24 24"><path d="M23 17c0 3.31-2.69 6-6 6v-1.5c2.5 0 4.5-2 4.5-4.5zM1 7c0-3.31 2.69-6 6-6v1.5c-2.5 0-4.5 2-4.5 4.5zm7-2.68-4.59 4.6c-3.22 3.22-3.22 8.45 0 11.67s8.45 3.22 11.67 0l7.07-7.09c.49-.47.49-1.26 0-1.75a1.25 1.25 0 0 0-1.77 0l-4.42 4.42-.71-.71 6.54-6.54c.49-.49.49-1.28 0-1.77s-1.29-.49-1.79 0L14.19 13l-.69-.73 6.87-6.89c.49-.49.49-1.28 0-1.77s-1.28-.49-1.77 0l-6.89 6.89-.71-.7 5.5-5.48c.5-.49.5-1.28 0-1.77s-1.28-.49-1.77 0l-7.62 7.62a4 4 0 0 1-.33 5.28l-.71-.71a3 3 0 0 0 0-4.24l-.35-.35 4.07-4.07c.49-.49.49-1.28 0-1.77-.5-.48-1.29-.48-1.79.01"/></svg>

<svg  viewBox="0 0 24 24" fill="currentColor"><path  d="M23 17C23 20.31 20.31 23 17 23V21.5C19.5 21.5 21.5 19.5 21.5 17H23M1 7C1 3.69 3.69 1 7 1V2.5C4.5 2.5 2.5 4.5 2.5 7H1M8 4.32L3.41 8.92C.19 12.14 .19 17.37 3.41 20.59S11.86 23.81 15.08 20.59L22.15 13.5C22.64 13.03 22.64 12.24 22.15 11.75C21.66 11.26 20.87 11.26 20.38 11.75L15.96 16.17L15.25 15.46L21.79 8.92C22.28 8.43 22.28 7.64 21.79 7.15S20.5 6.66 20 7.15L14.19 13L13.5 12.27L20.37 5.38C20.86 4.89 20.86 4.1 20.37 3.61S19.09 3.12 18.6 3.61L11.71 10.5L11 9.8L16.5 4.32C17 3.83 17 3.04 16.5 2.55S15.22 2.06 14.73 2.55L7.11 10.17C8.33 11.74 8.22 14 6.78 15.45L6.07 14.74C7.24 13.57 7.24 11.67 6.07 10.5L5.72 10.15L9.79 6.08C10.28 5.59 10.28 4.8 9.79 4.31C9.29 3.83 8.5 3.83 8 4.32Z"/></svg>
